X:3
T:Foots Minuet. BC.03
M:3/4
L:1/4
R:Minuet
O:England
A:x
N:There was a Samuel Foote,1720-1777, wit,playwright,and actor,just like
N:in Blackadder!
Z:vmp.John Bagnall
K:D
|: a f a | g2 f | e d e | f/e/f/g/f/g/ | a f a | Tg2 f | e d e | f3 :|
|: f f f |e/d/e/f/ e |  g g g | f/e/f/g/ f | a/g/f/g/a/b/ | Tg2 f | d/e/ f e | d3 |]

